svg/color/apoon.svg

<svg width="40" height="40" viewBox="0 0 40 40" fill="none" xmlns="http://www.w3.org/2000/svg">
<g clip-path="url(#clip0_819_3765)">
<path d="M20 0C31.0457 0 40 8.9543 40 20C40 31.0457 31.0457 40 20 40C8.95431 40 7.90517e-06 31.0457 0 20C6.58765e-07 8.95431 8.95431 1.97595e-06 20 0Z" fill="#D9D9D9"/>
<path d="M26 6C30.4183 6 34 9.58172 34 14V26C34 30.4183 30.4183 34 26 34H14C9.58172 34 6 30.4183 6 26V14C6 9.58172 9.58172 6 14 6H26Z" fill="black"/>
<g clip-path="url(#clip1_819_3765)">
<path d="M20.6324 10C20.8066 10 21.0151 10.0588 21.0749 10.2652C21.4577 11.5618 21.9316 12.9156 22.3729 14.211L26.4177 26.0532C27.2738 28.5857 27.6582 29.0272 28.9278 29.175L29.7242 29.2627C29.9312 29.4107 29.8717 29.8814 29.7242 30C28.5146 29.9401 27.4804 29.9113 26.1525 29.9113C24.7354 29.9113 23.6144 29.9697 22.7582 29.9991C22.5204 29.8819 22.4922 29.4102 22.6981 29.2637L23.5546 29.175C24.174 29.1164 24.5874 28.9389 24.5875 28.6447C24.5875 28.3211 24.4397 27.7894 24.2031 27.0824L22.906 23.0774C22.7 22.4305 22.58 22.3411 21.6948 22.3411H17.2371C16.4995 22.3411 16.3229 22.4298 16.1155 23.0488L15.0808 26.1401C14.6394 27.4662 14.4323 28.2616 14.4323 28.5865C14.4324 28.939 14.5804 29.1164 15.2887 29.175L16.2634 29.2627C16.4703 29.4109 16.4699 29.8815 16.2042 30C15.4359 29.9401 14.521 29.9406 13.1333 29.9113C12.1591 29.9113 11.0972 29.9697 10.2998 29.9991C10.123 29.8819 10.0627 29.4102 10.2406 29.2637L11.2153 29.175C11.9239 29.1164 12.573 28.7908 12.9864 27.731C13.5181 26.3756 14.3445 24.4622 15.5834 21.1632L18.5943 13.2105C19.0077 12.1506 19.1859 11.5911 19.0969 11.1197C19.8053 10.9134 20.3066 10.3822 20.6324 10ZM19.63 13.5939C19.5407 13.7409 19.2455 14.4481 18.9214 15.3317H18.9186L17.0588 20.4564C16.8224 21.1336 16.8521 21.1632 17.6787 21.1632H21.3133C22.1678 21.1631 22.2275 21.0459 21.9618 20.2513L20.3681 15.4481C20.1316 14.7424 19.8663 13.9467 19.6882 13.5939H19.63Z" fill="white"/>
</g>
</g>
<defs>
<clipPath id="clip0_819_3765">
<rect width="40" height="40" fill="white"/>
</clipPath>
<clipPath id="clip1_819_3765">
<rect width="20" height="20" fill="white" transform="translate(10 10)"/>
</clipPath>
</defs>
</svg>

<svg xmlns="http://www.w3.org/2000/svg" width="40" height="40" fill="none" viewBox="0 0 40 40"><g clip-path="url(#apoon_svg-a)"><path fill="#D9D9D9" d="M20 0c11.046 0 20 8.954 20 20s-8.954 20-20 20S0 31.046 0 20 8.954 0 20 0"/><path fill="#000" d="M26 6a8 8 0 0 1 8 8v12a8 8 0 0 1-8 8H14a8 8 0 0 1-8-8V14a8 8 0 0 1 8-8z"/><g clip-path="url(#apoon_svg-b)"><path fill="#fff" d="M20.632 10c.175 0 .383.059.443.265.383 1.297.857 2.65 1.298 3.946l4.045 11.842c.856 2.533 1.24 2.974 2.51 3.122l.796.088c.207.148.148.618 0 .737a68 68 0 0 0-3.572-.089c-1.417 0-2.538.059-3.394.088-.238-.117-.266-.589-.06-.735l.857-.089c.619-.059 1.032-.236 1.032-.53 0-.324-.147-.856-.384-1.563l-1.297-4.005c-.206-.647-.326-.736-1.211-.736h-4.458c-.737 0-.914.089-1.121.708L15.08 26.14c-.442 1.326-.649 2.122-.649 2.447 0 .352.148.53.857.588l.974.088c.207.148.207.618-.059.737-.768-.06-1.683-.06-3.07-.089-.975 0-2.037.059-2.834.088-.177-.117-.237-.589-.06-.735l.975-.089c.709-.059 1.358-.384 1.771-1.444.532-1.355 1.358-3.269 2.597-6.568l3.011-7.953c.414-1.06.592-1.619.503-2.09.708-.207 1.21-.738 1.535-1.12m-1.002 3.594c-.09.147-.384.854-.709 1.738h-.002l-1.86 5.124c-.237.678-.207.707.62.707h3.634c.855 0 .915-.117.649-.912l-1.594-4.803c-.236-.706-.502-1.501-.68-1.854z"/></g></g><defs><clipPath id="apoon_svg-a"><path fill="#fff" d="M0 0h40v40H0z"/></clipPath><clipPath id="apoon_svg-b"><path fill="#fff" d="M10 10h20v20H10z"/></clipPath></defs></svg>
